icons/outpatient_department.svg

<svg width="48" height="48" viewBox="0 0 48 48" fill="none" xmlns="http://www.w3.org/2000/svg">
<path d="M15.0801 27.6023C15.3235 25.6407 15.9123 23.8722 16.5748 22.4518L17.152 24.6491C17.3252 25.3083 17.9211 25.768 18.6028 25.768H22.666C23.4945 25.768 24.166 25.0964 24.166 24.268C24.166 23.4395 23.4945 22.768 22.666 22.768H19.7597L18.5863 18.301C18.4131 17.6417 17.8172 17.1821 17.1355 17.1821C15.0246 17.1821 13.335 18.4433 12.24 20.0016C11.14 21.567 10.5 23.6032 10.5 25.6146C10.5 26.1934 10.6432 26.7833 10.799 27.2727C10.9609 27.7814 11.1698 28.2831 11.3678 28.7138C11.5673 29.1477 11.7653 29.5304 11.913 29.8041C11.9797 29.9277 12.0368 30.0303 12.0801 30.1069V36.4548C12.0801 37.2832 12.7517 37.9548 13.5801 37.9548C14.4085 37.9548 15.0801 37.2832 15.0801 36.4548V27.6023Z" fill="black"/>
<path d="M22.3819 15.1877L22.4068 15.1564C22.6575 14.8379 22.846 14.4702 22.9548 14.0707C21.9652 14.23 21.0507 14.2923 20.1233 14.1682C20.0541 14.1589 19.985 14.1486 19.9161 14.1374L19.9008 14.1348C19.0795 13.9986 18.279 13.7188 17.4211 13.2776L17.4122 13.273C17.1992 13.1633 16.9828 13.0436 16.7616 12.9137C16.7476 13.0316 16.7405 13.1515 16.7405 13.273C16.7405 13.5397 16.775 13.7986 16.84 14.0455C16.8458 14.0678 16.8519 14.0899 16.8583 14.112C17.204 15.3135 18.2736 16.2184 19.5777 16.3479C19.6839 16.3585 19.7917 16.3639 19.9008 16.3639C20.9069 16.3639 21.8031 15.9041 22.3819 15.1877Z" fill="black"/>
<path d="M19.9008 10.1821C19.4584 10.1821 19.0373 10.271 18.655 10.4315C18.6189 10.4467 18.5832 10.4625 18.5478 10.4789C18.3724 10.5603 18.2058 10.657 18.05 10.7673C18.0336 10.7789 18.0174 10.7907 18.0012 10.8026C17.8738 10.8964 17.7539 10.9995 17.6425 11.1107C17.6869 11.1374 17.7308 11.1635 17.7743 11.1891C18.5414 11.6395 19.1807 11.9122 19.7745 12.0656C19.8168 12.0766 19.8589 12.0869 19.9008 12.0966C20.0659 12.135 20.228 12.1643 20.3887 12.1859C21.0588 12.2756 21.7564 12.2373 22.6335 12.0964L22.637 12.0958C22.6771 12.0894 22.7177 12.0827 22.7586 12.0758C22.7761 12.0729 22.7937 12.0699 22.8114 12.0668C22.7439 11.9111 22.6636 11.7618 22.5719 11.6204L22.5567 11.5972C22.4586 11.4487 22.3477 11.3089 22.2257 11.1794C21.8093 10.7373 21.2627 10.4142 20.6454 10.2684C20.4066 10.212 20.1573 10.1821 19.9008 10.1821Z" fill="black"/>
<path d="M24.2462 14.8182C24.7275 14.8182 25.1418 14.3505 25.3273 13.6786C25.3941 13.4369 25.4313 13.1687 25.4313 12.8864C25.4313 12.6041 25.3941 12.3359 25.3273 12.0941C25.1418 11.4223 24.7275 10.9546 24.2462 10.9546C23.7962 10.9546 23.4048 11.3634 23.2041 11.9656C23.1901 12.0075 23.177 12.0504 23.165 12.0941C23.0982 12.3359 23.061 12.6041 23.061 12.8864C23.061 13.1687 23.0982 13.4369 23.165 13.6786C23.3505 14.3505 23.7648 14.8182 24.2462 14.8182Z" fill="black"/>
<path d="M37.2825 16.3638C37.2825 18.0709 35.8676 19.4547 34.1222 19.4547C32.3768 19.4547 30.9619 18.0709 30.9619 16.3638C30.9619 14.6568 32.3768 13.2729 34.1222 13.2729C35.8676 13.2729 37.2825 14.6568 37.2825 16.3638Z" fill="black"/>
<path d="M30.4325 25.7703L31.0382 27.0873C31.283 27.6195 31.8152 27.9605 32.401 27.9605H36.4924C37.3209 27.9605 37.9924 27.289 37.9924 26.4605C37.9924 25.6321 37.3209 24.9605 36.4924 24.9605H33.3621L31.2524 20.3733C30.9598 19.7369 30.2658 19.3878 29.5805 19.5322L29.8894 20.9987C29.5805 19.5322 29.5792 19.5325 29.5779 19.5328L29.5753 19.5333L29.5697 19.5345L29.5575 19.5372L29.5289 19.5439C29.508 19.5489 29.4834 19.5551 29.4554 19.5627C29.3994 19.5779 29.3295 19.5987 29.2478 19.6266C29.0845 19.6823 28.8729 19.7666 28.6298 19.8918C28.1417 20.1431 27.5303 20.5574 26.9351 21.2262C25.7238 22.587 24.7214 24.8358 24.7214 28.4696C24.7214 29.1505 25.0294 29.6846 25.3384 30.0462C25.4062 30.1256 25.4777 30.2011 25.5518 30.2729H17.5305V38H19.1107L19.1107 32.5911H27.8015V38H29.3817L29.3817 32.1483C29.9708 32.33 30.5289 32.4805 30.9731 32.5963C31.1355 32.6387 31.2692 32.673 31.3863 32.703L31.504 32.7332C31.5795 32.8416 31.6683 32.971 31.7684 33.1184C32.0863 33.5868 32.4951 34.203 32.9013 34.8204C33.3068 35.4366 33.7064 36.0489 34.0049 36.5076C34.1541 36.7368 34.2778 36.9274 34.3643 37.0607L34.4995 37.2693C34.9495 37.9648 35.8782 38.1638 36.5737 37.7137C37.2692 37.2636 37.4681 36.3349 37.0181 35.6394L36.8811 35.428C36.794 35.2937 36.6694 35.1019 36.5193 34.8712C36.2192 34.4101 35.8167 33.7933 35.4075 33.1714C34.9991 32.5508 34.5809 31.9201 34.2506 31.4335C34.0863 31.1915 33.938 30.9766 33.8213 30.8138C33.7639 30.7339 33.7057 30.6546 33.6525 30.5867C33.6267 30.5536 33.5919 30.5103 33.5525 30.4657L33.5504 30.4633C33.5313 30.4414 33.4241 30.3184 33.2687 30.2082C33.0902 30.0815 32.9123 30.0181 32.8892 30.0098L32.8871 30.0091C32.8285 29.9873 32.773 29.9699 32.7331 29.9578C32.6509 29.933 32.5544 29.9069 32.4607 29.8822C32.371 29.8585 32.2505 29.8276 32.1183 29.7936C31.9938 29.7616 31.859 29.727 31.7301 29.6934C31.2245 29.5616 30.6059 29.3933 29.984 29.1927C29.9366 28.127 29.9998 27.3133 30.1751 26.5883C30.2413 26.3148 30.3257 26.0447 30.4325 25.7703Z" fill="black"/>
<path fill-rule="evenodd" clip-rule="evenodd" d="M9 6C7.34315 6 6 7.34315 6 9V39C6 40.6569 7.34315 42 9 42H39C40.6569 42 42 40.6569 42 39V9C42 7.34315 40.6569 6 39 6H9ZM40 9C40 8.44771 39.5523 8 39 8H9C8.44771 8 8 8.44772 8 9V39C8 39.5523 8.44772 40 9 40H39C39.5523 40 40 39.5523 40 39V9Z" fill="black"/>
</svg>

<svg
  xmlns="http://www.w3.org/2000/svg"
  width="24"
  height="24"
  viewBox="0 0 24 24"
  fill="none"
  stroke="currentColor"
  stroke-width="2"
  stroke-linecap="round"
  stroke-linejoin="round"
>
  <path d="M15.08 27.602c.243-1.961.832-3.73 1.495-5.15l.577 2.197a1.5 1.5 0 0 0 1.45 1.119h4.064a1.5 1.5 0 1 0 0-3H19.76l-1.174-4.467a1.5 1.5 0 0 0-1.45-1.119c-2.111 0-3.801 1.261-4.896 2.82-1.1 1.565-1.74 3.601-1.74 5.613 0 .578.143 1.168.299 1.658.162.508.37 1.01.569 1.44a19 19 0 0 0 .712 1.394v6.348a1.5 1.5 0 0 0 3 0z" />
  <path d="m22.382 15.188.025-.032c.25-.318.439-.686.548-1.085-.99.159-1.904.221-2.832.097l-.207-.03-.015-.003c-.822-.136-1.622-.416-2.48-.857l-.009-.005q-.32-.165-.65-.36a3.05 3.05 0 0 0 .096 1.199c.346 1.201 1.416 2.106 2.72 2.236q.16.015.323.016a3.18 3.18 0 0 0 2.48-1.176" />
  <path d="M19.9 10.182a3.2 3.2 0 0 0-1.899.62 3 3 0 0 0-.359.309l.132.078c.767.45 1.407.723 2 .877l.127.03q.247.058.488.09c.67.09 1.367.051 2.245-.09h.003l.174-.03a3 3 0 0 0-.24-.446l-.014-.023a3.173 3.173 0 0 0-2.656-1.415" />
  <path d="M24.246 14.818c.482 0 .896-.467 1.081-1.14.067-.241.104-.51.104-.792s-.037-.55-.104-.792c-.185-.672-.6-1.14-1.08-1.14-.45 0-.842.41-1.043 1.012l-.039.128c-.067.242-.104.51-.104.792s.037.55.104.793c.186.672.6 1.14 1.081 1.14" />
  <path d="M37.283 16.364c0 1.707-1.415 3.09-3.16 3.09s-3.161-1.383-3.161-3.09 1.415-3.091 3.16-3.091 3.16 1.384 3.16 3.09" />
  <path d="m30.433 25.77.605 1.317a1.5 1.5 0 0 0 1.363.874h4.091a1.5 1.5 0 1 0 0-3h-3.13l-2.11-4.588a1.5 1.5 0 0 0-1.671-.84l.308 1.466a82 82 0 0 0-.311-1.466h-.003l-.005.002-.012.002-.03.007a3 3 0 0 0-.28.083 5 5 0 0 0-.618.265c-.488.251-1.1.665-1.695 1.334-1.211 1.361-2.214 3.61-2.214 7.244 0 .68.308 1.215.617 1.576q.103.12.214.227H17.53V38h1.58v-5.409h8.69V38h1.58v-5.852c.59.182 1.148.332 1.592.448l.413.107.118.03.264.385c.318.469.727 1.085 1.133 1.702a405 405 0 0 1 1.463 2.24l.136.21a1.5 1.5 0 1 0 2.518-1.63l-.137-.212a478 478 0 0 0-1.474-2.257c-.408-.62-.826-1.25-1.156-1.738a32 32 0 0 0-.43-.62 7 7 0 0 0-.168-.226 3 3 0 0 0-.1-.121l-.003-.003c-.019-.022-.126-.145-.281-.255-.179-.127-.357-.19-.38-.198h-.002a3 3 0 0 0-.154-.052 8 8 0 0 0-.272-.076l-.343-.088-.388-.1c-.506-.132-1.124-.3-1.746-.501-.047-1.066.016-1.88.191-2.605a6 6 0 0 1 .258-.818" />
  <path
    fill-rule="evenodd"
    d="M9 6a3 3 0 0 0-3 3v30a3 3 0 0 0 3 3h30a3 3 0 0 0 3-3V9a3 3 0 0 0-3-3zm31 3a1 1 0 0 0-1-1H9a1 1 0 0 0-1 1v30a1 1 0 0 0 1 1h30a1 1 0 0 0 1-1z"
    clip-rule="evenodd"
  />
</svg>
